neru-light-classic/32x32/apps/mtvmusic.svg

<svg xmlns="http://www.w3.org/2000/svg" height="32" width="32" version="1"><rect width="28.203" height="28.203" x="1.898" y="1.898" ry="5.575" fill="#c2352a" fill-rule="evenodd"/><path d="M7.334 6C6.595 6 6 6.595 6 7.334v17.332C6 25.405 6.595 26 7.334 26h17.332c.739 0 1.334-.595 1.334-1.334V7.334C26 6.595 25.405 6 24.666 6zM8 9h5l3 5 3-5h5v14h-4v-9l-3 6h-2l-3-6v9H8z" fill="#fff"/><g stroke-width="1.333"><circle r="12" cy="33.744" cx="-24.232" fill="#ffa822" transform="matrix(.5 0 0 .5 34.617 5.476)"/><path d="M18.002 20.098v1.5h1.5v3h1.5v-3h1.5v-1.5zM22.502 20.098l1.5 4.5h1.5l1.5-4.5h-1.5l-.75 2.625-.75-2.625z" fill="#fff"/></g></svg>

<?xml version="1.0" encoding="UTF-8" standalone="no"?>
<svg
   xmlns:dc="http://purl.org/dc/elements/1.1/"
   xmlns:cc="http://creativecommons.org/ns#"
   xmlns:rdf="http://www.w3.org/1999/02/22-rdf-syntax-ns#"
   xmlns:svg="http://www.w3.org/2000/svg"
   xmlns="http://www.w3.org/2000/svg"
   xmlns:sodipodi="http://sodipodi.sourceforge.net/DTD/sodipodi-0.dtd"
   xmlns:inkscape="http://www.inkscape.org/namespaces/inkscape"
   height="32"
   width="32"
   version="1"
   id="svg24"
   sodipodi:docname="mtvmusic.svg"
   inkscape:version="0.92.1 r">
  <metadata
     id="metadata30">
    <rdf:RDF>
      <cc:Work
         rdf:about="">
        <dc:format>image/svg+xml</dc:format>
        <dc:type
           rdf:resource="http://purl.org/dc/dcmitype/StillImage" />
      </cc:Work>
    </rdf:RDF>
  </metadata>
  <defs
     id="defs28" />
  <sodipodi:namedview
     pagecolor="#ffffff"
     bordercolor="#666666"
     borderopacity="1"
     objecttolerance="10"
     gridtolerance="10"
     guidetolerance="10"
     inkscape:pageopacity="0"
     inkscape:pageshadow="2"
     inkscape:window-width="640"
     inkscape:window-height="480"
     id="namedview26"
     showgrid="false"
     inkscape:zoom="12.639534"
     inkscape:cx="3.4445193"
     inkscape:cy="13.803009"
     inkscape:current-layer="svg24" />
  <rect
     style="opacity:1;fill:#c2352a;fill-opacity:1;fill-rule:evenodd;stroke:none;stroke-width:1.03534329;stroke-linecap:round;stroke-linejoin:bevel;stroke-miterlimit:4;stroke-dasharray:none;stroke-dashoffset:0;stroke-opacity:1"
     id="rect4497-3"
     width="28.203388"
     height="28.203388"
     x="1.8983059"
     y="1.8983059"
     ry="5.575182"
     inkscape:export-filename="/home/ramil/3.png"
     inkscape:export-xdpi="71"
     inkscape:export-ydpi="71" />
  <path
     d="m 7.334,5.9999998 c -0.7387,0 -1.334,0.5953 -1.334,1.334 V 24.666 C 6,25.405 6.5953,26 7.334,26 H 24.666 C 25.405,26 26,25.405 26,24.666 V 7.3339998 c 0,-0.7387 -0.595,-1.334 -1.334,-1.334 z m 0.666,3 h 5 L 16,14 19,8.9999998 h 5 V 23 h -4 v -9 l -3,6 h -2 l -3,-6 v 9 H 8 Z"
     id="path6"
     inkscape:connector-curvature="0"
     style="fill:#ffffff" />
  <g
     id="g4518"
     transform="matrix(0.74999625,0,0,0.74999625,4.5017113,5.0981792)"
     style="stroke-width:1.33334005">
    <g
       id="g14"
       transform="matrix(0.66667,0,0,0.66667,40.154,0.50406)"
       style="stroke-width:1.33334005">
      <circle
         id="circle12"
         r="12"
         cy="33.743999"
         cx="-24.232"
         style="fill:#ffa822;stroke-width:1.33334005;enable-background:new" />
    </g>
    <path
       id="path16"
       d="m 18,20 v 2 h 2 v 4 h 2 v -4 h 2 v -2 z"
       inkscape:connector-curvature="0"
       style="fill:#ffffff;stroke-width:1.77779567" />
    <path
       id="path18"
       d="m 24,20 2,6 h 2 l 2,-6 H 28 L 27,23.5 26,20 Z"
       inkscape:connector-curvature="0"
       style="fill:#ffffff;stroke-width:1.77779567" />
  </g>
</svg>
